archdroid-icon-theme/Archdroid-LightGreen/actions/scalable/star-new-symbolic.svg

<svg xmlns="http://www.w3.org/2000/svg" fill="#8BC34A" viewBox="0 0 48 48"><path d="m24 31.65l11.13 8.1-4.26-13.08 11.13-7.92h-13.65l-4.35-13.5-4.35 13.5h-13.65l11.13 7.92-4.245 13.08"/></svg>

<?xml version="1.0" encoding="UTF-8" standalone="no"?>
<svg
   xmlns:dc="http://purl.org/dc/elements/1.1/"
   xmlns:cc="http://creativecommons.org/ns#"
   xmlns:rdf="http://www.w3.org/1999/02/22-rdf-syntax-ns#"
   xmlns:svg="http://www.w3.org/2000/svg"
   xmlns="http://www.w3.org/2000/svg"
   xmlns:sodipodi="http://sodipodi.sourceforge.net/DTD/sodipodi-0.dtd"
   xmlns:inkscape="http://www.inkscape.org/namespaces/inkscape"
   fill="#8BC34A"
   width="48"
   height="48"
   viewBox="0 0 48 48"
   id="svg2"
   version="1.1"
   inkscape:version="0.91 r13725"
   sodipodi:docname="star-new-symbolic.svg">
  <metadata
     id="metadata10">
    <rdf:RDF>
      <cc:Work
         rdf:about="">
        <dc:format>image/svg+xml</dc:format>
        <dc:type
           rdf:resource="http://purl.org/dc/dcmitype/StillImage" />
        <dc:title></dc:title>
      </cc:Work>
    </rdf:RDF>
  </metadata>
  <defs
     id="defs8" />
  <sodipodi:namedview
     pagecolor="#ffffff"
     bordercolor="#666666"
     borderopacity="1"
     objecttolerance="10"
     gridtolerance="10"
     guidetolerance="10"
     inkscape:pageopacity="0"
     inkscape:pageshadow="2"
     inkscape:window-width="1366"
     inkscape:window-height="713"
     id="namedview6"
     showgrid="false"
     inkscape:zoom="3.795750125125503"
     inkscape:cx="-3.185297097231739"
     inkscape:cy="2.447635591944341"
     inkscape:window-x="0"
     inkscape:window-y="30"
     inkscape:window-maximized="1"
     inkscape:current-layer="svg2" />
  <path
     d="M 24,31.65 35.13,39.75 30.87,26.67 42,18.75 28.34999999999999,18.75 24,5.25 19.65,18.75 6,18.75 17.13,26.67 12.885,39.75 Z"
     id="path4"
     inkscape:connector-curvature="0" />
</svg>
